X:1
T:Ad alligandos reges
T:Francisco Valls (1665-1747)
T:Vulgate: Psalm 149 verses 8 to 9 From "Mapa Armónico Práctico" (1742) folio 206  verso to 207 verso
T:Ad alligandos reges
T:Fragmento de un motete
C:Francisco Valls (1665-1747)
Z:Vulgate: Psalm 149 verses 8 to 9
Z:From "Mapa Armónico Práctico"
Z:(1742) folio 206  verso to 207 verso
%%score [ 1 2 ]
L:1/8
M:4/4
K:A
V:1 alto1 nm="P1"
V:2 bass nm="[Continuo]" snm="Cont."
V:1
"^Recitativo" x8 |[M:4/4][K:treble] z cf^e ff cc/d/ | ee =gf/e/ d>c B2 | %3
w: |Ad al- li- gan- dos re- ges e-|o- rum in com- * pe- di- bus,|
 z FB^A BF B!courtesy!=A/B/ | GE ed/e/ cc AB/c/ | GGGG GB/A/ G>F | F2 z f d>d dA | =cc z c B>A Bd | %8
w: ad al- li- gan- dos re- ges e-|o- rum, ad al- li- gan- dos re- ges e-|o- rum in com- pe- * * * di-|bus et no- bi- lis e-|o- rum, et no- bi- lis e-|
 =GG/G/ ^cB/c/ ^A/G/A/B/ c/d/e/f/ | d/c/d/e/ c>B B2 z d | A>A AB GE/E/ ed/e/ | %11
w: o- rum in ma- ni- cis fer- * * * * * * *|* * * * re- * is et|no- bi- lis e- o- rum in ma- ni- cis|
 c/B/A/B/ c/d/e/f/ d/c/d/e/ c/B/c/d/ | c2 B>A A4 ||"^Aria""^" z6 | z6 | z6 | z6 | z2 z2 e2 | %18
w: fer- * * * * * * * * * * * * * * *|* re- * is.|||||Ut|
 c>B c2 A2 | G>F G2 E2 | A>G A>B c>^d | e>^d e>d e2 | z6 | z2 z2 e2 | c>B c2 A2 | G>A G2 e2 | %26
w: fa- ci- ant in|e- * is ju-|di- ti- um _ con- *|scrip- * * * tum,||ut|fa- ci- ant in|e- * is ut|
 c>B c2 f2 | d>c d2 B2 | ^A>G A2 F2 | B>^A B>c d>e | f>^e f>e f!courtesy!=e | d3 c de | fB ^A3 B | %33
w: fa- ci- ant ut|fa- ci- ant in|e- * is ju-|di- ti- um _ con- *|scrip- * * * tum, ju|di- ti- um con-|scrip- * * *|
 B6 | z6 | B3 c BA | G2 e^d ef | ^d2 B2 cd | eE G2 AB | c3 B A(G | A3) B G(F | G)(A (F3) E) | E6 | %43
w: tum.||Glo- ri- a haec|est, glo- ri- a haec|est om- ni- bus|sanc- tis, om- ni- bus|san- ctis e- *|||jus,|
 z6 | e3 ^d ef | ^d2 Bc BA | G2 E2 FG | AB (c3 B | A)B (G3 F) | F4 z2 | z6 | z6 | z2 z2 F2 | %53
w: |glo- ri- a haec|est, glo- ri- a haec|est om- ni- bus|san- ctis e- *||jus.|||Ut|
 B>c B2 c2 | d>c d2 e2 | f>e d>e f>=g | fd c3 d | d4 z2 | A3 B A=G | F2 dc de | c2 A2 Bc | %61
w: fa- ci- ant in|e- * is ju-|di- ti- um _ con- *|scrip- * * *|tum,|Glo- ri- a haec|est, glo- ri- a haec|est om- ni- bus|
 dD F2 =GA | B3 A =GA | F=G (E3 D) | D6 | z6 | d3 e dc | B2 ef ed | c2 E2 FG | ABcd ef | cd B3 A | %71
w: sanc- tis, om- ni- bus|san- ctis e- *||ius,||Glo- ri- a haec|est, glo- ri- a haec|est om- ni- bus|san- * * * * *|ctis _ e- *|
 A4 z2 | e3 f ed | c2 E2 FG | ABcd ef | G3 A Bc | (d4 c4 B4) | A16 |] %78
w: ius,|glo- ri- a haec|est om- ni- bus|san- * * * ctis _|e- * * *||ius.|
V:2
 x8 |[M:4/4]"^6" ^A,,8 | A,,4 B,,4 |"^6" ^D,8 |"^6" G,,4 A,,4 |"^6" B,,4"^65" B,,2 C,2 | %6
 F,,4"^6" F,,4 | F,,4 =G,,4 | =G,,2"^6" E,,2 F,,4 | =G,,E,, F,,2 B,,4 |"^65" ^D,4 E,2"^6" G,,2 | %11
 A,,4 B,,2"^6" C,D, |"^4" E,2 E,,2 A,,4 || z2 z2 E2 | C>B, C2 A,2 |"^6" G,>F, G,2 E,2 | %16
 A,>G, A,>B, C>D | E>F E>D C>B, | A,4 F,2 | E,4 E2 |"^6" C>B, C2 A,2 |"^6" G,>F, G,2 E,2 | %22
 A,>G, A,>B, C>^D | E>F E>D C>B, | A,4 F,2 | E,>F, E,>D, C,>B,, |"^6" ^A,,4 A,,2 | B,,4 =G,2 | %28
 F,>E, F,>E, D,>C, | B,,4 =G,2 | F,4"^6" ^A,,2 | B,,3 ^A,, B,,C, |"^6" D,E, F,2 F,,2 | B,3 C B,A, | %34
"^6" G,2 E,^D, E,F, |"^6" ^D,2 B,,2 D,2 | E,3"^6" F,"^6" G,"^6"A, | B,3 A, G,F, | E,3 D, C,B,, | %39
 A,3 G, F,E, | ^D,4 E,2- | E,2 B,,4 | E,3 ^D, E,F, |"^6" ^D,2 B,C B,A, |"^6" G,2 E,F, G,A, | %45
 B,2 ^D,2 B,,2 | E,3 D, C,B,, | A,,2"^6" ^E,2 C,2 | F,B,, C,2 C,,2 | F,,>G,,"^6" F,,2 G,,2 | %50
 ^A,,>G,, A,,2 F,,2 | B,,>C,"^6" B,,2"^6" C,2 | D,>E, F,2 D,2 | =G,4"^6" E,2 | D,4"^6" C,2 | %55
 D,2 =G,2"^6" F,2 | D,2 A,2 A,,2 | D,3 C, D,E, |"^6" C,2 A,,2"^6" C,2 | D,2"^6" F,2 D,2 | %60
 A,3 =G, F,E, | D,3 C, B,,A,, | =G,,F,,!courtesy!^G,,A,,"^6" B,,C, | D,=G,, A,,2 A,,2 | %64
 D,3 C, D,E, |"^6" C,2 A,B, A,=G, |"^6" F,2 D,2"^6" F,2 | =G,2"^6" ^G,2 E,2 | A,3 B, A,G, | %69
 F,3 F, E,D, | E,D,"^43" E,2 E,,2 | A,3 G, A,B, |"^6" G,2 E,2"^6" G,2 | A,3 B, A,G, | F,3 F, E,D, | %75
 E,4 E,2 | D,4 A,,4 E,4 | A,,16 |] %78

